X: 11241
T: Bonny Mary
C: James Oswald
%R: air, strathspay
B: James Oswald "The Caledonian Pocket Companion" v.1 b.1 p.24 #1
Z: 2020 John Chambers <jc:trillian.mit.edu>
M: C
L: 1/8
K: G
%%slurgraces 1
%%graceslurs 1
"_Slow"G>A |\
(B>c)(d>e) d2(g>d) | e2(d>c) (B>d)(g>f) | (e>f)(g>d) (e>d)(c>B) | {B}A6 G>A |\
(B>c)(d>e) d2(g>d) |
(e>c)(a>g) {g}f3d | (efg)c B2TA2 | G6 :: (f>g) |\
(a>g) (f>g) {fg}a2c2- | c>dTBA B2(e>f) | gefg B2{e}^d2 |
e6 (ef) |\
g(f/e/) dc Bdef | (ge)(fg) {B}A3B | (c>e)(e>=f) (e^fg)B | (cB)TA>G G2 :|


